picto/bicycle-park-left-framed.svg

<svg class="color-immutable" width="30" height="30" viewBox="0 0 30 30" fill="none" xmlns="http://www.w3.org/2000/svg"><path d="M0 30V0H30V30H0Z" fill="#2D327D"/><path d="M25.5 3C26.325 3 27 3.675 27 4.5V25.5C27 26.325 26.325 27 25.5 27H4.5C3.675 27 3 26.325 3 25.5V4.5C3 3.675 3.675 3 4.5 3H25.5ZM25.5 2.625H4.5C3.46613 2.625 2.625 3.46613 2.625 4.5V25.5C2.625 26.5339 3.46613 27.375 4.5 27.375H25.5C26.5339 27.375 27.375 26.5339 27.375 25.5V4.5C27.375 3.46613 26.5339 2.625 25.5 2.625Z" fill="white"/><path d="M6 6H7.81597C8.12168 6 8.36235 6.01898 8.5377 6.05693C8.71312 6.09495 8.87168 6.16207 9.01328 6.25852C9.40523 6.52125 9.6012 6.91725 9.6012 7.4466C9.6012 7.91655 9.43905 8.28585 9.11483 8.55465C8.97735 8.66962 8.82037 8.7522 8.6439 8.80245C8.46743 8.8527 8.24993 8.87783 7.9914 8.87783H6.9819V10.5H6V6ZM6.9819 6.83108V8.1054H7.8591C8.11973 8.1054 8.30745 8.0592 8.42235 7.96687C8.56395 7.85197 8.63475 7.6827 8.63475 7.45905C8.63475 7.23338 8.55263 7.06507 8.38853 6.9543C8.2695 6.87225 8.07563 6.83115 7.80683 6.83115H6.9819V6.83108Z" fill="white"/><path d="M16.9847 14.7955L18.7953 15.4287C18.8343 15.4435 18.8772 15.45 18.9191 15.45C19.0443 15.45 19.1604 15.3877 19.2302 15.2839L19.6371 14.6803C19.6704 14.6302 19.6873 14.5717 19.6873 14.5132C19.6873 14.347 19.5534 14.2124 19.388 14.2124H17.0843C16.9178 14.2124 16.7832 14.347 16.7832 14.5132C16.7832 14.6405 16.8649 14.7538 16.9847 14.7955Z" fill="white"/><path d="M10.6493 14.8125H13.275V14.2125H10.6493C10.4839 14.2125 10.35 14.347 10.35 14.5129C10.35 14.678 10.4839 14.8125 10.6493 14.8125Z" fill="white"/><path d="M10.65 15.7878H11.0252C11.1906 15.7878 11.3254 15.6532 11.3254 15.4878C11.3254 15.3217 11.1906 15.187 11.0252 15.187H10.65C10.4846 15.187 10.3507 15.3217 10.3507 15.4878C10.3507 15.6532 10.4846 15.7878 10.65 15.7878Z" fill="white"/><path d="M20.3248 16.6493C19.7404 16.6493 19.1637 16.7886 18.6443 17.0558L17.9243 15.9H12.0745L11.3546 17.0558C10.8353 16.7886 10.2593 16.6493 9.67492 16.6493C7.6461 16.6493 6 18.2954 6 20.325C6 22.3528 7.6461 23.9999 9.67492 23.9999C11.7029 23.9999 13.3491 22.3527 13.3491 20.325C13.3491 19.1608 12.799 18.067 11.8644 17.3725L12.2678 16.7245L14.2335 19.6474C14.0978 19.819 14.0245 20.0308 14.0245 20.2498C14.0245 20.7874 14.4619 21.2248 14.9988 21.2248C15.3778 21.2248 15.7225 21.0047 15.8832 20.6621H16.6655C16.8392 22.5533 18.4259 24 20.3247 24C22.3537 23.9999 24 22.3527 24 20.325C24 18.2954 22.3537 16.6493 20.3248 16.6493ZM12.7499 20.325C12.7499 22.0223 11.3722 23.4001 9.67492 23.4001C7.97767 23.4001 6.59917 22.0223 6.59917 20.325C6.59917 18.6269 7.9776 17.2498 9.67492 17.2498C10.1477 17.2498 10.6131 17.3585 11.0369 17.5674L9.4194 20.1662C9.39075 20.2135 9.375 20.2684 9.375 20.3249C9.375 20.4903 9.50857 20.6249 9.67492 20.6249C9.77902 20.6249 9.87465 20.5709 9.9294 20.4828L11.5468 17.8849C12.305 18.4672 12.7499 19.3687 12.7499 20.325ZM15.2684 19.312C15.1811 19.287 15.0908 19.2749 14.9989 19.2749C14.909 19.2749 14.8188 19.2869 14.7315 19.312L12.8401 16.4997H17.1597L15.2684 19.312ZM16.6589 20.0622H15.9566C15.9269 19.9108 15.8621 19.7679 15.7662 19.6473L17.7312 16.7245L18.1353 17.3725C17.2749 18.0112 16.7362 18.9936 16.6589 20.0622ZM18.4529 17.885L19.8083 20.0622H17.261C17.3344 19.2007 17.7674 18.4105 18.4529 17.885ZM20.3248 23.4001C18.7567 23.4001 17.4403 22.22 17.2674 20.662H19.8287C19.9403 20.8264 20.1261 20.9248 20.3248 20.9248C20.6555 20.9248 20.9239 20.6554 20.9239 20.325C20.9239 19.9935 20.6555 19.7243 20.3248 19.7243C20.3183 19.7243 20.3108 19.7243 20.3054 19.7254L18.9621 17.5675C19.3856 17.3586 19.852 17.2499 20.3248 17.2499C22.022 17.2499 23.3987 18.627 23.3987 20.3251C23.3988 22.0222 22.0221 23.4001 20.3248 23.4001Z" fill="white"/></svg>

<svg class="color-immutable" width="30" height="30" viewBox="0 0 30 30" fill="none" xmlns="http://www.w3.org/2000/svg"><g clip-path="url(#a)"><path d="M0 30V0h30v30H0Z" fill="#2D327D"/><path d="M25.5 3c.825 0 1.5.675 1.5 1.5v21c0 .825-.675 1.5-1.5 1.5h-21c-.825 0-1.5-.675-1.5-1.5v-21C3 3.675 3.675 3 4.5 3h21Zm0-.375h-21A1.877 1.877 0 0 0 2.625 4.5v21c0 1.034.841 1.875 1.875 1.875h21a1.877 1.877 0 0 0 1.875-1.875v-21A1.877 1.877 0 0 0 25.5 2.625Z" fill="#fff"/><path d="M6 6h1.816c.306 0 .546.019.722.057.175.038.334.105.475.202.392.262.588.658.588 1.188 0 .47-.162.839-.486 1.108a1.265 1.265 0 0 1-.471.247c-.177.05-.394.076-.653.076h-1.01V10.5H6V6Zm.982.831v1.274h.877c.26 0 .448-.046.563-.138.142-.115.213-.284.213-.508 0-.226-.082-.394-.246-.505-.12-.082-.313-.123-.582-.123h-.825ZM16.985 14.796l1.81.633a.374.374 0 0 0 .435-.145l.407-.604a.302.302 0 0 0-.249-.468h-2.304a.3.3 0 0 0-.1.584ZM10.65 14.813h2.625v-.6h-2.626a.3.3 0 0 0 0 .6ZM10.65 15.788h.375a.3.3 0 0 0 0-.601h-.375a.3.3 0 0 0 0 .6ZM20.325 16.65c-.585 0-1.161.139-1.68.406l-.72-1.156h-5.85l-.72 1.156A3.676 3.676 0 1 0 9.675 24a3.677 3.677 0 0 0 2.19-6.628l.403-.648 1.965 2.923a.976.976 0 1 0 1.65 1.015h.783A3.674 3.674 0 0 0 24 20.325a3.676 3.676 0 0 0-3.675-3.676Zm-7.575 3.675a3.076 3.076 0 0 1-6.15 0 3.077 3.077 0 0 1 4.437-2.758l-1.618 2.6a.3.3 0 1 0 .51.317l1.618-2.6a3.077 3.077 0 0 1 1.203 2.441Zm2.518-1.013a.976.976 0 0 0-.537 0l-1.89-2.812h4.319l-1.892 2.812Zm1.39.75h-.701a.965.965 0 0 0-.19-.415l1.964-2.922.404.647a3.68 3.68 0 0 0-1.476 2.69Zm1.795-2.177 1.355 2.177h-2.547a3.072 3.072 0 0 1 1.192-2.177Zm1.872 5.515a3.077 3.077 0 0 1-3.058-2.738h2.562a.6.6 0 1 0 .496-.938l-.02.001-1.343-2.158a3.075 3.075 0 1 1 1.363 5.833Z" fill="#fff"/></g><defs><clipPath id="a"><path fill="#fff" d="M0 0h30v30H0z"/></clipPath></defs></svg>
